src/icons/sort.svg

<svg xmlns="http://www.w3.org/2000/svg" width="24" height="24" fill="none"><path fill="currentColor" d="M22.5 16.5 24 18l-5 5-5-5 1.5-1.5L18 19V2h2v17zM14 5H1v2h13zm0 6H1v2h13zM1 17h10v2H1z"/></svg>

<svg width="24" height="24" viewBox="0 0 24 24" fill="none" xmlns="http://www.w3.org/2000/svg">
<path d="M22.5 16.5L24 18L19 23L14 18L15.5 16.5L18 19L18 2H20L20 19L22.5 16.5Z" fill="black"/>
<path d="M14 5H1V7H14V5Z" fill="black"/>
<path d="M14 11H1V13H14V11Z" fill="black"/>
<path d="M1 17H11V19H1V17Z" fill="black"/>
</svg>
